!!!COM: Bach, Johann Sebastian
!!!CDT: 1685/3//-1750/7/28/
!!!OTL@@DE: Sei Lob und Ehr' dem hoechsten Gut
!!!AGN: 4-Part Chorale
!!!SCT: BH 354
!!!SCT: BWV 117
**harm	**root	**kern	**kern	**kern	**kern
!	!	!bass	!tenor	!alto	!soprno
*	*Iorgan	*Iorgan	*Iorgan	*Iorgan	*Iorgan
*M4/4	*M4/4	*M4/4	*M4/4	*M4/4	*M4/4
*met(c)	*met(c)	*met(c)	*met(c)	*met(c)	*met(c)
*MM60	*MM60	*MM60	*MM60	*MM60	*MM60
*k[f#c#g#d#a#e#b#]	*k[f#c#g#d#a#e#b#]	*k[f#c#g#d#a#e#b#]	*k[f#c#g#d#a#e#b#]	*k[f#c#g#d#a#e#b#]	*k[f#c#g#d#a#e#b#]
*C#:	*C#:	*C#:	*C#:	*C#:	*C#:
*>[A,A,B]	*>[A,A,B]	*>[A,A,B]	*>[A,A,B]	*>[A,A,B]	*>[A,A,B]
*>A	*>A	*>A	*>A	*>A	*>A
Vb	4DD	4B#	8g#	4dd#	4gg#
.	.	.	8f#	.	.
=1	=1	=1	=1	=1	=1
I	4GG	4c#	4e#	4cc#	4gg#
V	4DD	4G#	4d#	8cc#	4gg#
.	.	.	.	8b#	.
I	4GG	4C#	4e#	4cc#	8gg#
.	.	.	.	.	8aa#
-VIIb	8FF	8D#	4d#	8f#	4bb
iiio7	8BB	8E#	.	8g#	.
=2	=2	=2	=2	=2	=2
IV	4CC	4F#	8c#	8.a#	4aa#
.	.	.	8f#	.	.
.	.	.	.	16b	.
I	4GG	4C#	8f#	4cc#	4gg#
.	.	.	8e#	.	.
IV;	4CC;	4F#;	4a#;	4cc#;	4ff#;
Vb	4DD	4B#	4g#	4dd#	4gg#
=3	=3	=3	=3	=3	=3
I	4GG	4.c#	8g#	4cc#	8ee#
.	.	.	8f#	.	8dd#
I	8GG	.	8e#	4g#	8cc#
Vb	8DD	8B#	8d#	.	8dd#
vi	4EE	8A#	4c#	8cc#	4ee#
.	.	8B#	.	8b#	.
V/V	4AA	8c#	4d#	4a#	4ff##
.	.	8d#	.	.	.
=4	=4	=4	=4	=4	=4
Vb	8DD	8B#	8d#	8dd#	4gg#
V	8DD	8G#	4g#	8b#	.
V7/V	4AA	4d#	.	4cc#	4aa#
.	.	.	8f##	.	.
V;	4DD;	4G#;	4g#;	4b#;	4gg#;
=:|!	=:|!	=:|!	=:|!	=:|!	=:|!
*>B	*>B	*>B	*>B	*>B	*>B
I	4GG	8c#	4g#	4ee#	4gg#
.	.	8d#	.	.	.
!!linebreak: 2
=5	=5	=5	=5	=5	=5
Ib	4GG	8e#	8g#	4ee#	4ccc#
.	.	8f##	8a#	.	.
V	4DD	4g#	8b#	8dd#	4bb#
.	.	.	8cc#	8ee#	.
V/V	4AA	4d#	8dd#	4ff##	4aa#
.	.	.	8cc#	.	.
Vb/iii	4FF#	4d##	8b#	4ff##	4bb#
.	.	.	8a#	.	.
=6	=6	=6	=6	=6	=6
Ib	4GG	8e#	4g#	4gg#	8ccc#
.	.	8c#	.	.	8bb#
V/V	4AA	4d#	4f##	8dd#	4aa#
.	.	.	.	8cc#	.
V;	4DD;	4G#;	4d#;	4b#;	4gg#;
I	4GG	8c#	4e#	4cc#	4gg#
.	.	8B#	.	.	.
=7	=7	=7	=7	=7	=7
vi	4EE	8A#	8e#	4cc#	4ccc#
.	.	8G#	8f#	.	.
Ib	4GG	8F#	4g#	4cc#	4gg#
.	.	8E#	.	.	.
IV	4CC	8F#	4f#	4cc#	4aa#
.	.	8G#	.	.	.
vi	4EE	4A#	8c#	4cc#	8ee#
.	.	.	8a#	.	8ff#
=8	=8	=8	=8	=8	=8
Vb	8DD	8B#	8g#	8dd#	4gg#
vii/ii	8GG#	8c##	8e#	8ee#	.
ii	4AA	4d#	8f#	8a#	4ff#
.	.	.	16a#	8dd#	.
.	.	.	16g##	.	.
VI;	4EE;	4A#;	4a#;	4cc##;	4ee#;
I	4GG	4c#	4g#	4cc#	4ee#
=9	=9	=9	=9	=9	=9
Vb	4DD	4B#	4g#	4dd#	8dd#
.	.	.	.	.	8ee#
IVb	8CC	8A#	4a#	8cc#	4ff#
vii7	8FF#	8B#	.	8dd#	.
I	4GG	4c#	4g#	8ee#	4ee#
.	.	.	.	8cc#	.
iib	4AA	4F#	8f#	4a#	4dd#
.	.	.	8e#	.	.
=10	=10	=10	=10	=10	=10
Vb/V	4AA	4F##	2d#	4a#	4a#
V	4DD	4G#	.	4g#	4b#
I;	4GG;	4C#;	4e#;	4g#;	4cc#;
==	==	==	==	==	==
*-	*-	*-	*-	*-	*-
!!!ONB: Near duplicate with erk248.krn
!!chor2scor: -l 2 -o %b.pmx
!!!YEC: Copyright 1994, David Huron
!!!YEC: Changes/Additions 2001 by Craig Stuart Sapp
!!!YEN: United States of America
!!!SMA: 371 Bach Chorales, edited by Ludwig Erk, C.F. Peters
!!!PDT: 1850, 1865
!!!ONB: Harmony and Root analysis done manually
